app/dist/common/images/xp-power-ltd.svg

<svg height="18" viewBox="0 0 18 18" width="18" xmlns="http://www.w3.org/2000/svg"><path d="m0 0h18v18h-18z" fill="#f0f3fa"/><path d="m3 5h12v.5h-12zm0 7.5h12v.5h-12zm4.46-.5h-1.04l.52-1.13zm7.54 0h-4v-1.98c1.94 0 2.67-1.31 2.67-1.97 0-1.28-1.02-1.85-1.67-2.05h3zm-8.38-6h.76l-.38.84zm-.57 2.9-1.3-2.9h-1.75v6h1.62zm2.95-2.37-.49 1.02-.62 1.31 1.11 2.55v-4.87zm2 .8c.37 0 .67.28.67.64v.04c0 .36-.3.65-.67.65z" fill="#201d1d"/></svg>

<!-- by TradingView --><svg width="18" height="18" viewBox="0 0 18 18" xmlns="http://www.w3.org/2000/svg"><path fill="#F0F3FA" d="M0 0h18v18H0z"/><path d="M3 5h12v.5H3V5Zm0 7.5h12v.5H3v-.5Zm4.46-.5H6.42l.52-1.13.52 1.13ZM15 12h-4v-1.98c1.94 0 2.67-1.31 2.67-1.97C13.67 6.77 12.65 6.2 12 6H15v6ZM6.62 6h.76L7 6.84 6.62 6Zm-.57 2.9L4.75 6H3v6h1.62l1.43-3.1ZM9 6.53l-.49 1.02-.62 1.31L9 11.41V6.54Zm2 .8c.37 0 .67.28.67.64v.04c0 .36-.3.65-.67.65V7.33Z" fill="#201D1D"/></svg>
